X: 32356
T: Pinnin Valssi
R: waltz
M: 3/4
K: Amixolydian
Ac ec ec|Ac ec ec|Ad fd fd|Ad fd fd|
Ac ec ec|Ac ec ec|B2 BABc|A6:|
|:z2 gg gg|g2 f2 e2|d3e fg|a4 f2|
g3f ed|c4 d2|B3A Bc|A6:|

